X:1
T: My Ain Lassie
C:
R:Strathspey
Q: 128
K:D
M:4/4
L:1/16
|:A2|FA3 A3a g3f e3d|Bd3 A3F BE3 E3G|FA3 A3a g3f e3d|Bd3 A3G FD3 D2A2|
FA3 A3a g3f e3d|Bd3 A3F BE3 E3G|FA3 A3a g3f e3d|Bd3 A3G FD3 D2A2|
FA3 A3d B3d A3F|GB3 A3F BE3 E3G|FA3 A3d B3d A3F|GB3 A3G FD3 D2A2|
FA3 A3d B3d A3F|GB3 A3F BE3 E3G|FA3 A3d B3d A3F|GB3 A3G FD3 D2:|
